img/twitter.svg

<svg width="21" height="22" viewBox="0 0 21 22" fill="none" xmlns="http://www.w3.org/2000/svg">
<path d="M10.5 0.292969C4.70156 0.292969 0 4.99453 0 10.793C0 16.5914 4.70156 21.293 10.5 21.293C16.2984 21.293 21 16.5914 21 10.793C21 4.99453 16.2984 0.292969 10.5 0.292969ZM15.5461 8.20781C15.5531 8.31797 15.5531 8.43281 15.5531 8.54531C15.5531 11.9859 12.9328 15.9492 8.14453 15.9492C6.66797 15.9492 5.29922 15.5203 4.14609 14.782C4.35703 14.8055 4.55859 14.8148 4.77422 14.8148C5.99297 14.8148 7.11328 14.4023 8.00625 13.7039C6.8625 13.6805 5.90156 12.9305 5.57344 11.8992C5.97422 11.9578 6.33516 11.9578 6.74766 11.8523C6.15873 11.7327 5.62939 11.4129 5.24957 10.9471C4.86974 10.4814 4.66286 9.89861 4.66406 9.29766V9.26484C5.00859 9.45937 5.41406 9.57891 5.83828 9.59531C5.48166 9.35764 5.1892 9.03565 4.98682 8.65788C4.78445 8.28012 4.67841 7.85825 4.67813 7.42969C4.67813 6.94453 4.80469 6.50156 5.03203 6.11719C5.68571 6.92188 6.5014 7.58002 7.42609 8.04883C8.35078 8.51763 9.36377 8.78661 10.3992 8.83828C10.0312 7.06875 11.3531 5.63672 12.9422 5.63672C13.6922 5.63672 14.3672 5.95078 14.843 6.45703C15.4312 6.34688 15.9937 6.12656 16.4953 5.83125C16.3008 6.43359 15.893 6.94219 15.3516 7.26328C15.8766 7.20703 16.3828 7.06172 16.8516 6.85781C16.4977 7.37813 16.0547 7.83984 15.5461 8.20781Z" fill="#E6E6E6"/>
</svg>

<svg width="21" height="22" fill="none" xmlns="http://www.w3.org/2000/svg"><path d="M10.5.293C4.702.293 0 4.995 0 10.793s4.702 10.5 10.5 10.5S21 16.591 21 10.793 16.298.293 10.5.293Zm5.046 7.915c.007.11.007.225.007.337 0 3.44-2.62 7.404-7.408 7.404a7.382 7.382 0 0 1-3.999-1.167c.211.024.413.033.628.033 1.219 0 2.34-.413 3.232-1.111a2.604 2.604 0 0 1-2.433-1.805c.401.059.762.059 1.175-.047a2.6 2.6 0 0 1-2.084-2.554v-.033c.345.194.75.314 1.174.33a2.605 2.605 0 0 1-.806-3.478 7.39 7.39 0 0 0 5.367 2.721c-.368-1.77.954-3.201 2.543-3.201a2.6 2.6 0 0 1 1.901.82c.588-.11 1.15-.33 1.652-.626a2.59 2.59 0 0 1-1.143 1.432 5.148 5.148 0 0 0 1.5-.405c-.354.52-.797.982-1.306 1.35Z" fill="#E6E6E6"/></svg>
